www/assets/icons/auto_delete.svg

<svg xmlns="http://www.w3.org/2000/svg" width="24" height="24" viewBox="0 0 24 24" fill='currentColor'><path d="M15 2h-3.5l-1-1h-5l-1 1H1v2h14zm1 7c-.7 0-1.37.1-2 .29V5H2v12c0 1.1.9 2 2 2h5.68A6.999 6.999 0 0 0 23 16c0-3.87-3.13-7-7-7m0 12c-2.76 0-5-2.24-5-5s2.24-5 5-5 5 2.24 5 5-2.24 5-5 5"/><path d="M16.5 12H15v5l3.6 2.1.8-1.2-2.9-1.7z"/></svg>

<svg width="24" height="24" viewBox="0 0 24 24" xmlns="http://www.w3.org/2000/svg" fill='currentColor'><path d="M15 2H11.5L10.5 1H5.5L4.5 2H1V4H15V2Z"/><path d="M16 9C15.3 9 14.63 9.1 14 9.29V5H2V17C2 18.1 2.9 19 4 19H9.68C10.8 21.36 13.21 23 16 23C19.87 23 23 19.87 23 16C23 12.13 19.87 9 16 9ZM16 21C13.24 21 11 18.76 11 16C11 13.24 13.24 11 16 11C18.76 11 21 13.24 21 16C21 18.76 18.76 21 16 21Z"/><path d="M16.5 12H15V17L18.6 19.1L19.4 17.9L16.5 16.2V12Z"/></svg>
